X:1086
T:Neglected Tar.
M:C
L:1/4
Q:1/4=100
Z:Jack Campin * www.campin.me.uk * 2009
K:F
c   |f>e d d|c(c/>B/) A z/B/|c F B A     | A G  F
z/c/|f>e d d|c B      A z/B/|c F B(A/>B/)|(A G  F)
z/c/|f e f c|f(e/>f/) g>e   |f d g>f     |(e d  c)
c   |f>e d d|c(c/B/)  A z/B/|c F B A     |(A G  F)
c   |f e f c|f(e/>f/) g e   |f d g>f     |(e>d) c
c   |f>e d d|c>B      A B   |c F B A     |(A G) F|]
<end>
<start>
